!!!OTL: Dem Kaiser.
!!!OTL-incipit: DEM KAISER SEI MEIN ERSTES LIED
!!!COM: K. F. Zelter (Mel)
!!!ARE: Europa, Mitteleuropa, Deutschland
!!!SCT: F0377
!!!TXL: @@DE
!!!YEM: Copyright 1995, estate of Helmut Schaffrath.
**kern	**text
*ICvox	*
*M6/8	*
*k[f#c#]	*
*D:	*
!LO:TX:a:t=Ziemlich schnell.	!
!LO:TX:a:t=Zweistimmig.	!
{8a	Dem
=1	=1
4a	Kai-
8f#	-ſer
4f#	ſei
8dd	mein
=2	=2
4dd	er-
8a\	-ſtes
4a\}	Lied,
{8ff#	ihm
=3	=3
4ee	klingt
8cc#	der
(8dd/L	er-
8cc#J)	.
8b/	-ſte
=4	=4
4.a	Klang
4r}	.
{8a	Des
=5	=5
4a	Va-
8f#	-ter-
4f#	-lan-
8dd	-des
=6	=6
4dd	Schirm
8a\	und
4a\}	Hort
{8ff#	preis'
=7	=7
4ee	ich
8cc#	mit
(8dd/L	lau-
8cc#J)	.
8b/	-tem
=8	=8
4.a	Sang.
4r}	.
{8dd	Sein
=9	=9
4cc#	Na-
8ee	-me
4a	füllt
8g	mit
=10	=10
4f#	re-
8a	-ger
4a}	Luſt
{8dd	jed-
=11	=11
4cc#	-we-
8ee	-des
4a	Deut-
8g	-ſchen
=12	=12
(8f#L	treu-
8gJ)	.
8a	-e
4a}	Bruſt!
{8a	Der
=13	=13
4b	Kai-
8b	-ſer
4b	le-
8b	-be
=14	=14
4.cc#	hoch!
4r}	.
{8dd	Der
=15	=15
4ee	Kar-
8ee	-ſer
(8cc#/L	le-
8bJ)	.
8cc#/	-be
=16	=16
[4.ff#	hoch!
4ff#]}	.
{8dd	Der
=17	=17
4ee	Kai-
8ee	-ſer
(8aL	le-
8bJ)	.
8cc#	-be
=18	=18
4.dd	hoch!
4r}	.
==	==
!!!AGN: Jugend - Lied, national, patriotisch
!!!ONB: ESAC (Essen Associative Code) Database: FINK
!!!AMT: compound duple
!!!AIN: vox
!!!EED: Helmut Schaffrath
!!!EEV: 1.0
!!!source: Musikalischer Hausschatz der Deutschen. Eine Sammlung von über 1000 Liedern und Gesängen mit Singstimmen und Klavierbegleitung. Leipzig, Litterarisches Verlags-Haus.
!!!page: 224
!!!ENC: Anna Maria Matuszewska
!!!EEV: 2025/03/14
*-	*-
